X: 207
T:The Pentatonic Modes based on A
L:1/4
M:8/4
K:A
"^Lydian/Major/Mixolydian Pentatonic"  A2 Bc ef a2|a2 fe cB A2||
M:9/4
K:AMix
"^Major/Mixolydian/Dorian Pentatonic"  A2 Bd ef a2|a2 fe dB A2||
M:9/4
K:ADor
"^Mixolydian/Dorian/Minor Pentatonic"  A2 Bd eg a2|a2 ge dB A2||
M:9/4
K:AMin
"^Dorian/Minor/Phrygian Pentatonic"    A2 cd eg a2|a2 ge dc A2|]

One trick that harpists can use for some pentatonic modes: for the
lydian/major/mixolydian mode, the unused 4th and 7th strings can be
retuned upwards by a tone, and for the dorian/minor/phrygian mode,
the unused 2nd and 6th strings can be retuned downwards by a tone.
This duplicates the tonal centre and the fifth, which can give added
resonance to the sound in the most important places.  This can't be
done with sharpening levers, so you probably wouldn't want to do it
in live performance, but it might be worth trying for a recording.

=============================================================================
==  (c) Jack Campin         http://www.campin.me.uk/        November 2010  ==
==        11 Third Street, Newtongrange, Midlothian EH22 4PU, Scotland     ==
==                                                                         ==
==              these pages: http://tinyurl.com/scottishmodes              ==
=============================================================================

=============================================================================
=               Scales and Modes in Scottish Traditional Music              =
=                                  Jack Campin                              =
=============================================================================


Misleading Final Notes
======================

In most European art music, the final note of a tune is its tonal centre.
In many Scottish tunes, it isn't; this is very often the case with dance
tunes intended to be repeated indefinitely in a circular pattern, but it
often occurs with songs as well.  Probably the commonest type are those
ending on the third:

